X:1
T:Title
%%score { ( 1 4 ) | ( 2 3 ) }
L:1/8
Q:1/4=100
M:4/4
K:D
V:1 treble nm="Grand Piano"
V:4 treble 
V:2 bass 
V:3 bass 
V:1
 [Fd]3 [FA] [=F^G][^FA] [=GB]>[FA] | [GA]6 z2 | [Gc]3 [EG] [^DF][EG] [GB]>[CGA] | [DFA]6 z2 | %4
w: W.~J.~Baltzell * * * * *||||
 [Fd]3 [DF] [DF][E^G] [EA]>B | c6 z2 | e3 A ^GA c>B | [A,CA]6 z2 | [FA]3 d [Ac]B [GB]>A | %9
w: |||||
 [GA]4- [CGA]2 z2 | [FA]3 d [Ac]B [GB]>A | [GA]4- [CGA]2 z2 | [A,FA]3 [FB] [Fc][Fd] [Fd]>[FA] | %13
w: ||||
 [Gc]6 z2 | [Gc]3 [GA] [EA][CA] [GB]>[CGA] | [DFA]6 z2 | [CGA]3 [CGA] [A,GA]2 [A,GA]2 | %17
w: ||||
 [A,FA]6 z2 | %18
w: |
 [Gc]3 [GA] [GB]2 [Gc]2[Q:1/4=97][Q:1/4=94][Q:1/4=91][Q:1/4=88][Q:1/4=84][Q:1/4=81][Q:1/4=78] | %19
w: |
 [Fd]6 z2 |] %20
w: |
V:2
 [D,A,]3 [D,D] [D,D][D,D] [D,D]>[D,D] | [E,C]6 z2 | [A,,A,]3 [A,,A,] [A,,A,][A,,A,] [A,,A,]>A,, | %3
 D,6 z2 | [D,A,]3 [D,A,] [D,A,][D,B,] [C,A,]>[E,^G,E] | [A,E]6 z2 | %6
 [E,CE]3 [E,CE] [E,DE][E,CE] [E,A,E]>[E,^G,D] | A,,6 z2 | D,2 z[K:treble] F z G z z/ F/ | %9
 E,2 z E z A, B,>A, | D,2 z[K:treble] F z G z z/ F/ | E,2 z E z A, B,>A, | %12
 D,3 [D,A,] [D,A,][D,A,] [D,A,]>[D,A,] | [E,A,]6 z2 | [A,,A,]3 [A,,A,] [C,A,][A,,A,] [A,,A,]>A,, | %15
 D,6 z2 | E,3 E, E,2 C,2 | D,6 z2 | [A,,A,]3 [A,,A,] [A,,A,]2 [A,,A,]2 | [D,A,]6 z2 |] %20
V:3
 x8 | x8 | x8 | x8 | x8 | x8 | x8 | x8 | z2 D,2[K:treble] D,2 D,2 | z2 E,2 A,,2 z2 | %10
 z2 D,2[K:treble] D,2 D,2 | z2 E,2 A,,2 z2 | x8 | x8 | x8 | x8 | x8 | x8 | x8 | x8 |] %20
V:4
 x8 | x8 | x8 | x8 | x8 | x8 | x8 | x8 | x8 | A,4 z4 | A,4 z4 | A,4 z4 | x8 | x8 | x8 | x8 | x8 | %17
 x8 | x8 | x8 |] %20

